digital/Imbassy-X-Files/65ef0811cc67439994568a45/65ef0811cc6743999456944d_x.svg

<svg fill="none" height="47" viewBox="0 0 47 47" width="47" xmlns="http://www.w3.org/2000/svg"><path clip-rule="evenodd" d="m27.9318 36.75-6.9367-9.8874-8.684 9.8874h-3.67389l10.72789-12.2111-10.72789-15.2889h9.43239l6.5379 9.3188 8.1916-9.3188h3.6738l-10.23 11.6456 11.1214 15.8544zm4.0913-2.7875h-2.4734l-15.6521-21.925h2.4738l6.2687 8.779 1.0841 1.5233z" fill="#2a2e32" fill-rule="evenodd"/></svg>

<svg width="47" height="47" viewBox="0 0 47 47" fill="none" xmlns="http://www.w3.org/2000/svg">
<path fill-rule="evenodd" clip-rule="evenodd" d="M27.9318 36.75L20.9951 26.8626L12.3111 36.75H8.63721L19.3651 24.5389L8.63721 9.25H18.0696L24.6075 18.5688L32.7991 9.25H36.4729L26.2429 20.8956L37.3643 36.75H27.9318ZM32.0231 33.9625H29.5497L13.8976 12.0375H16.3714L22.6401 20.8165L23.7242 22.3398L32.0231 33.9625Z" fill="#2A2E32"/>
</svg>
